src/assets/duotone/Driver.svg

<svg width="24" height="24" viewBox="0 0 24 24"  xmlns="http://www.w3.org/2000/svg">
<path opacity="0.4" d="M19.3198 9.99977H4.68977C3.20977 9.99977 2.00977 8.78977 2.00977 7.31977V4.68977C2.00977 3.20977 3.21977 2.00977 4.68977 2.00977H19.3198C20.7998 2.00977 21.9998 3.21977 21.9998 4.68977V7.31977C21.9998 8.78977 20.7898 9.99977 19.3198 9.99977Z" />
<path opacity="0.4" d="M19.3198 21.9998H4.68977C3.20977 21.9998 2.00977 20.7898 2.00977 19.3198V16.6898C2.00977 15.2098 3.21977 14.0098 4.68977 14.0098H19.3198C20.7998 14.0098 21.9998 15.2198 21.9998 16.6898V19.3198C21.9998 20.7898 20.7898 21.9998 19.3198 21.9998Z" />
<path d="M6 7.75C5.59 7.75 5.25 7.41 5.25 7V5C5.25 4.59 5.59 4.25 6 4.25C6.41 4.25 6.75 4.59 6.75 5V7C6.75 7.41 6.41 7.75 6 7.75Z" />
<path d="M10 7.75C9.59 7.75 9.25 7.41 9.25 7V5C9.25 4.59 9.59 4.25 10 4.25C10.41 4.25 10.75 4.59 10.75 5V7C10.75 7.41 10.41 7.75 10 7.75Z" />
<path d="M6 19.75C5.59 19.75 5.25 19.41 5.25 19V17C5.25 16.59 5.59 16.25 6 16.25C6.41 16.25 6.75 16.59 6.75 17V19C6.75 19.41 6.41 19.75 6 19.75Z" />
<path d="M10 19.75C9.59 19.75 9.25 19.41 9.25 19V17C9.25 16.59 9.59 16.25 10 16.25C10.41 16.25 10.75 16.59 10.75 17V19C10.75 19.41 10.41 19.75 10 19.75Z" />
<path d="M18 6.75H14C13.59 6.75 13.25 6.41 13.25 6C13.25 5.59 13.59 5.25 14 5.25H18C18.41 5.25 18.75 5.59 18.75 6C18.75 6.41 18.41 6.75 18 6.75Z" />
<path d="M18 18.75H14C13.59 18.75 13.25 18.41 13.25 18C13.25 17.59 13.59 17.25 14 17.25H18C18.41 17.25 18.75 17.59 18.75 18C18.75 18.41 18.41 18.75 18 18.75Z" />
</svg>

<?xml version="1.0" encoding="UTF-8"?>
<svg width="24" height="24" viewBox="0 0 24 24" xmlns="http://www.w3.org/2000/svg">
 <path d="m19.32 9.9998h-14.63c-1.48 0-2.68-1.21-2.68-2.68v-2.63c0-1.48 1.21-2.68 2.68-2.68h14.63c1.48 0 2.68 1.21 2.68 2.68v2.63c0 1.47-1.21 2.68-2.68 2.68z" opacity=".4"/>
 <path d="m19.32 22h-14.63c-1.48 0-2.68-1.21-2.68-2.68v-2.63c0-1.48 1.21-2.68 2.68-2.68h14.63c1.48 0 2.68 1.21 2.68 2.68v2.63c0 1.47-1.21 2.68-2.68 2.68z" opacity=".4"/>
 <path d="m6 7.75c-0.41 0-0.75-0.34-0.75-0.75v-2c0-0.41 0.34-0.75 0.75-0.75s0.75 0.34 0.75 0.75v2c0 0.41-0.34 0.75-0.75 0.75z"/>
 <path d="m10 7.75c-0.41 0-0.75-0.34-0.75-0.75v-2c0-0.41 0.34-0.75 0.75-0.75s0.75 0.34 0.75 0.75v2c0 0.41-0.34 0.75-0.75 0.75z"/>
 <path d="m6 19.75c-0.41 0-0.75-0.34-0.75-0.75v-2c0-0.41 0.34-0.75 0.75-0.75s0.75 0.34 0.75 0.75v2c0 0.41-0.34 0.75-0.75 0.75z"/>
 <path d="m10 19.75c-0.41 0-0.75-0.34-0.75-0.75v-2c0-0.41 0.34-0.75 0.75-0.75s0.75 0.34 0.75 0.75v2c0 0.41-0.34 0.75-0.75 0.75z"/>
 <path d="m18 6.75h-4c-0.41 0-0.75-0.34-0.75-0.75s0.34-0.75 0.75-0.75h4c0.41 0 0.75 0.34 0.75 0.75s-0.34 0.75-0.75 0.75z"/>
 <path d="m18 18.75h-4c-0.41 0-0.75-0.34-0.75-0.75s0.34-0.75 0.75-0.75h4c0.41 0 0.75 0.34 0.75 0.75s-0.34 0.75-0.75 0.75z"/>
</svg>
